X:31
T:Gigue du P\`ere Mathias
M:4/4
L:1/8
K:D
de |: fddd B/c/BAG | FAFA EEde | fddd B/c/BAG |1 FABc d2de :|2 FABc d2zB |: 
AFFF AFdB | AFFA EEdB | AFFF AFdB |1AFEF D2zB :|2 AFEF D2AA |: 
Acec B/c/BAA | Acec B/c/BAA | Acec B/c/BAA | BABc d2AA :|

